Origami/64x64/apps/jamendo.svg

<svg xmlns="http://www.w3.org/2000/svg" width="64" height="64" version="1">
 <path style="opacity:0.2" d="m 4.0507997,32.000415 c -0.0118,0.333995 -0.050799,0.66199 -0.050799,0.999985 C 4.0000004,48.512179 16.487822,61 31.9996,61 47.511378,61 59.9992,48.512179 59.9992,33.0004 c 0,-0.337675 -0.03904,-0.66527 -0.05078,-0.999985 C 59.420428,47.0422 47.172603,59.000029 31.99882,59.000029 16.824637,59.000029 4.5772122,47.0422 4.0492197,32.000415 Z"/>
 <rect style="fill:#672168" width="55.999" height="55.999" x="-60" y="-60" rx="28" ry="28" transform="matrix(0,-1,-1,0,0,0)"/>
 <path style="opacity:0.2" d="M 31.9996,13.000686 A 19.999714,19.999714 0 0 0 11.999886,33.0004 19.999714,19.999714 0 0 0 31.9996,53.000114 19.999714,19.999714 0 0 0 51.999314,33.0004 19.999714,19.999714 0 0 0 31.9996,13.000686 Z m -6.726504,7.999886 a 1.2498221,1.3333209 0 0 1 0.593752,0.175777 l 17.499749,10.663848 a 1.2498221,1.3333209 0 0 1 0,2.320367 L 25.866848,44.824411 a 1.2498221,1.3333209 0 0 1 -1.867974,-1.159983 l 0,-21.327695 a 1.2498221,1.3333209 0 0 1 1.273982,-1.335981 z"/>
 <path style="fill:#ffffff" d="M 31.9996,12.000715 A 19.999714,19.999714 0 0 0 11.999886,32.000429 19.999714,19.999714 0 0 0 31.9996,52.000143 19.999714,19.999714 0 0 0 51.999314,32.000429 19.999714,19.999714 0 0 0 31.9996,12.000715 Z m -6.725904,7.999886 a 1.2498221,1.3333209 0 0 1 0.593992,0.175997 l 17.499749,10.663848 a 1.2498221,1.3333209 0 0 1 0,2.319966 L 25.867688,43.82426 a 1.2498221,1.3333209 0 0 1 -1.867974,-1.159983 l 0,-21.327696 a 1.2498221,1.3333209 0 0 1 1.273982,-1.33598 z"/>
 <path style="opacity:0.1;fill:#ffffff" d="M 32 4 C 16.488222 4 4 16.488222 4 32 C 4 32.113554 4.0112846 32.224034 4.0175781 32.335938 C 4.3691163 17.134398 16.710946 5 32 5 C 47.289054 5 59.630884 17.134398 59.982422 32.335938 C 59.988797 32.224034 60 32.113554 60 32 C 60 16.488222 47.511778 4 32 4 z"/>
</svg>

<svg width="64" height="64" version="1" xmlns="http://www.w3.org/2000/svg">
 <path d="m4.0507997 32.000415c-0.0118 0.333995-0.050799 0.66199-0.050799 0.999985-3e-7 15.511779 12.487821 27.9996 27.999599 27.9996s27.9996-12.487821 27.9996-27.9996c0-0.337675-0.03904-0.66527-0.05078-0.999985-0.527992 15.041785-12.775817 26.999614-27.9496 26.999614-15.174183 0-27.421608-11.957829-27.9496-26.999614z" style="opacity:.2"/>
 <rect transform="matrix(0,-1,-1,0,0,0)" x="-60" y="-60" width="55.999" height="55.999" rx="28" ry="28" style="fill:#672168"/>
 <path d="m31.9996 13.000686a19.999714 19.999714 0 0 0 -19.999714 19.999714 19.999714 19.999714 0 0 0 19.999714 19.999714 19.999714 19.999714 0 0 0 19.999714 -19.999714 19.999714 19.999714 0 0 0 -19.999714 -19.999714zm-6.726504 7.999886a1.2498221 1.3333209 0 0 1 0.593752 0.175777l17.499749 10.663848a1.2498221 1.3333209 0 0 1 0 2.320367l-17.499749 10.663847a1.2498221 1.3333209 0 0 1 -1.867974 -1.159983v-21.327695a1.2498221 1.3333209 0 0 1 1.273982 -1.335981z" style="opacity:.2"/>
 <path d="m31.9996 12.000715a19.999714 19.999714 0 0 0 -19.999714 19.999714 19.999714 19.999714 0 0 0 19.999714 19.999714 19.999714 19.999714 0 0 0 19.999714 -19.999714 19.999714 19.999714 0 0 0 -19.999714 -19.999714zm-6.725904 7.999886a1.2498221 1.3333209 0 0 1 0.593992 0.175997l17.499749 10.663848a1.2498221 1.3333209 0 0 1 0 2.319966l-17.499749 10.663848a1.2498221 1.3333209 0 0 1 -1.867974 -1.159983v-21.327696a1.2498221 1.3333209 0 0 1 1.273982 -1.33598z" style="fill:#ffffff"/>
 <path d="M 32 4 C 16.488222 4 4 16.488222 4 32 C 4 32.113554 4.0112846 32.224034 4.0175781 32.335938 C 4.3691163 17.134398 16.710946 5 32 5 C 47.289054 5 59.630884 17.134398 59.982422 32.335938 C 59.988797 32.224034 60 32.113554 60 32 C 60 16.488222 47.511778 4 32 4 z" style="fill:#ffffff;opacity:.1"/>
</svg>
